X:1
T:La mort est ieu
T:Jean de Castro
T:Source : La fleur des chansons à 3---Louvain---P.Phalèse---1574. Editor : André Vierendeels (13/08/18) Notes : Original clefs : C1, C3, C4 Original note values have been halved Editorial accidentals above the staff
T:La mort est ieu
T:©
T:©
T:©
C:Jean de Castro
Z:©
%%score [ 1 2 3 ]
L:1/8
Q:1/4=66
M:2/2
K:C
V:1 treble nm="Soprano" snm="S"
V:2 treble nm="Alto" snm="A"
V:3 treble-8 nm="Tenor" snm="T"
V:1
 z4 E4 | G6 ^F2 | G2 z G AA c2 | G4 z2 B2 | d6 B2 | c2 z G BB d2 | GGBd>cB A2 | B2 z E GA G2 | %8
w: La|mort est|ieu, pi- re qu'aux quil-|les, la|mort est|ieu, pi- re qu'aux quil-|les, pi- re qu'aux _ _ quil-|les ne qu'aux es- chetz,|
 z2 G2 BcBd | cA G2 z EAA | GEFD E G2 E | ^F G2 A GF G2 | z4 c3 A | Bc B3 A2 G | AFEA G2 E2- | %15
w: ne qu'aux es- chetz, ne|qu'au quil- lart, ne qu'aux es-|chetz, ne qu'au quil- lart, à ce|mes- chant ieu, Co- quil- lart,|à ce|mes- chant ieu, Co- quil-|lart per- dit sa vi- e'et|
"^-natural""^#" E2 A2 G A3/2G/4F/4G | E4 z2 A2 | FF E3 EAA |"^-natural" G2 GB cB A2 |"^#" G8 |] %20
w: _ ses co- quil- * * *|les, per-|dit sa vi- e'et ses co-|quil- les, et ses co- quil-|les.|
V:2
 A,4 C4- | C2 B,2 C2 z D | EE G2 D2 z C | EE G4 D2 | z2 A2 G2 G2 | ECEE G2 DD | EE G4 ^F2 | %7
w: La mort|_ est ieu, pi-|re q'aux quil- les, pi-|re qu'aux quil- les,|la mort est|ieu, pi- re qu'aux quil- les, pi-|re qu'aux quil- les,|
 z2 G2 ED E2 | z ^CDE DCDB, | A,2 z B, C3 A, | B,CCB, C E2 C | DB, C2 B,A, E2 | z EDE A,E z A | %13
w: ne qu'aux es- chetz,|ne qu'aux es- chetz, ne qu'au quil-|lart, ne qu'aux es-|chetz, ne qu'au quil- lart, à ce|mes- chant ieu, Co- quil- lart,|à ce mes- chant ieu, à|
 GA G2 E2 CB, | DDCD B,2 C2 | z2 A,2 B,C B,2 | A,ECC A,2 D2 | z C2 B,2 C A,2 | E2 z E EE C2 | %19
w: ce mes- chant ieu, Co- quil-|lart per- dit sa vi- e,|et ses co- quil-|les, per- dit sa vi- e|et ses co- quil-|les, et ses co- quil-|
 B,8 |] %20
w: les.|
V:3
 z8 | z8 | z8 | E4 G4- | G2 ^F2 G2 z G | AA c2 G4 |"^-natural" z2 G2 BB d2 | G2 z2 z2 E2 | %8
w: |||La mort|_ est ieu, pi-|re qu'aux quil- les,|pi- re qu'aux quil-|les, ne|
"^-natural" GAGc BA G2 |"^-natural" z2 z G A3 F | ECFG C4 | z4 z2 z c- | cAB c2 AFF | E8 | %14
w: qu'aux es- chetz, ne qu'au quil- lart|ne qu'aux es-|chetz, ne qu'au quil- lart,|à|_ ce mes- chant ieu, Co- quil-|lart|
 D2 AD E2 A2 | ^GA F2 E4 | z2 A2 FF D2- | D A2 ^G2 A F2 | E2 E2 A^G A2 | E8 |] %20
w: per- dit sa vi- e'et|ses co- quil- les,|per- dit sa vi-|* e'et ses co- quil-|les, et ses co- quil-|les.|

